icons/24x24_upload_outline.svg

<svg xmlns="http://www.w3.org/2000/svg" width="24" height="24" viewBox="0 0 24 24">
  <path fill-rule="evenodd" d="M11.0019802,6.8283848 L7.75717937,10.073048 C7.36663852,10.4635723 6.73344669,10.4635723 6.34290583,10.073048 C5.95236498,9.68252373 5.95236498,9.04935875 6.34290583,8.65883446 L12,3.00198021 L17.6570942,8.65883446 C18.047635,9.04935875 18.047635,9.68252373 17.6570942,10.073048 C17.2665533,10.4635723 16.6333615,10.4635723 16.2428206,10.073048 L13.0019802,6.83234505 L13.0019802,16.0019802 C13.0019802,16.554265 12.554265,17.0019802 12.0019802,17.0019802 C11.4496955,17.0019802 11.0019802,16.554265 11.0019802,16.0019802 L11.0019802,6.8283848 Z M21,15 L21,18 C21,19.6568542 19.6568542,21 18,21 L6,21 C4.34314575,21 3,19.6568542 3,18 L3,15 C3,14.4477153 3.44771525,14 4,14 C4.55228475,14 5,14.4477153 5,15 L5,18 C5,18.5522847 5.44771525,19 6,19 L18,19 C18.5522847,19 19,18.5522847 19,18 L19,15 C19,14.4477153 19.4477153,14 20,14 C20.5522847,14 21,14.4477153 21,15 Z"/>
</svg>

<svg width="24" height="24" fill="none" xmlns="http://www.w3.org/2000/svg"><path fill-rule="evenodd" clip-rule="evenodd" d="m11.002 6.828-3.245 3.245a1 1 0 0 1-1.414-1.414L12 3.002l5.657 5.657a1 1 0 1 1-1.414 1.414l-3.241-3.24v9.169a1 1 0 0 1-2 0V6.828ZM21 15v3a3 3 0 0 1-3 3H6a3 3 0 0 1-3-3v-3a1 1 0 1 1 2 0v3a1 1 0 0 0 1 1h12a1 1 0 0 0 1-1v-3a1 1 0 1 1 2 0Z" fill="#000"/></svg>
